X: 38140
T: Sporting Nell
R: reel
M: 4/4
K: Ddorian
|:AD{F}ED A2 dc|AcGE {F}ED (3EFG|AD{F}ED A2 dc|1 AcGE {F}ED D2:|2 AcGE {F}EDEG||
~c2 ec gcec|~c2 ec AddB|~c2 ec gcec|AcGE {F}EDEG|
~c2 ec gcec|~c2 ec Adde|f3 d efed|cAAG Addc||[D4A,4] z4||

